svgs/amarok.svg

<svg width="192" height="192" viewBox="0 0 192 192" fill="none" xmlns="http://www.w3.org/2000/svg">
<path d="M33.8046 56.9605C28.7306 63.9642 27.7013 68.629 28.536 78.0348C31.3734 73.1622 33.3187 70.9832 39.0731 70.6588C35.1188 66.4754 34.0486 63.4249 33.8046 56.9605Z" stroke="black" stroke-width="6" stroke-linejoin="round"/>
<path d="M123.159 19.2694C129.158 25.4987 130.827 29.9749 131.309 39.4053C127.821 34.975 125.592 33.0879 119.848 33.5676C123.182 28.8746 123.817 25.7048 123.159 19.2694Z" stroke="black" stroke-width="6" stroke-linejoin="round"/>
<path d="M66.2776 18.9818C60.6125 25.5166 59.1806 30.0739 59.1924 39.5167C62.4436 34.9099 64.5714 32.9087 70.3323 33.0871C66.7576 28.575 65.9573 25.4429 66.2776 18.9818Z" stroke="black" stroke-width="6" stroke-linejoin="round"/>
<path d="M153.175 56.5837C159.282 62.7074 161.028 67.1538 161.675 76.5743C158.111 72.2056 155.848 70.3577 150.114 70.9375C153.365 66.1871 153.945 63.0067 153.175 56.5837Z" stroke="black" stroke-width="6" stroke-linejoin="round"/>
<path d="M128.477 67.3142C127.454 73.1205 124.988 77.8313 122.14 80.8012C119.26 83.8057 116.54 84.5632 114.558 84.2137C112.576 83.8642 110.28 82.2224 108.601 78.4139C106.941 74.6491 106.235 69.3791 107.259 63.5728C108.283 57.7664 110.748 53.0557 113.596 50.0858C116.477 47.0813 119.196 46.3238 121.178 46.6733C123.16 47.0228 125.456 48.6646 127.135 52.4731C128.795 56.2378 129.501 61.5078 128.477 67.3142Z" stroke="black" stroke-width="12"/>
<path d="M62.8718 66.3723C63.8956 72.1786 66.3614 76.8894 69.209 79.8593C72.0897 82.8637 74.8088 83.6212 76.7908 83.2717C78.7729 82.9222 81.0689 81.2805 82.7483 77.4719C84.4084 73.7072 85.1143 68.4372 84.0905 62.6308C83.0667 56.8245 80.6009 52.1137 77.7533 49.1438C74.8726 46.1393 72.1535 45.3819 70.1715 45.7314C68.1894 46.0808 65.8933 47.7226 64.214 51.5312C62.5539 55.2959 61.848 60.5659 62.8718 66.3723Z" stroke="black" stroke-width="12"/>
<path d="M156.612 105.706C154.596 111.246 151.349 115.457 148.029 117.888C144.671 120.346 141.861 120.62 139.97 119.932C138.079 119.243 136.103 117.228 135.11 113.185C134.129 109.19 134.349 103.877 136.366 98.3367C138.382 92.7964 141.628 88.5854 144.948 86.155C148.307 83.6964 151.116 83.4227 153.008 84.111C154.899 84.7994 156.875 86.8149 157.868 90.8572C158.849 94.853 158.629 100.166 156.612 105.706Z" stroke="black" stroke-width="12"/>
<path d="M35.2091 105.706C37.2256 111.246 40.4719 115.457 43.792 117.888C47.1506 120.346 49.96 120.62 51.8512 119.932C53.7424 119.243 55.7186 117.228 56.7111 113.185C57.6922 109.19 57.4722 103.877 55.4557 98.3367C53.4392 92.7964 50.1929 88.5854 46.8728 86.155C43.5142 83.6964 40.7048 83.4227 38.8136 84.111C36.9224 84.7994 34.9462 86.8149 33.9537 90.8572C32.9726 94.853 33.1926 100.166 35.2091 105.706Z" stroke="black" stroke-width="12"/>
<mask id="path-9-inside-1_1_2" fill="white">
<path fill-rule="evenodd" clip-rule="evenodd" d="M70.4893 176C73.5551 176 76.4983 175.506 79.2338 174.608C91.1293 170.685 102.468 170.685 114.367 174.608C117.099 175.506 120.042 176 123.108 176C137.639 176 149.416 164.984 149.416 151.392C149.416 143.464 145.404 136.412 139.183 131.914C130.568 125.686 124.656 118.3 120.473 108.527C116.208 98.5694 107.208 91.703 96.8006 91.703C86.3897 91.703 77.3891 98.5694 73.1245 108.527C68.9416 118.3 63.0291 125.686 54.4145 131.914C48.1976 136.412 44.1817 143.464 44.1817 151.392C44.1817 164.984 55.9585 176 70.4893 176Z"/>
</mask>
<path fill-rule="evenodd" clip-rule="evenodd" d="M70.4893 176C73.5551 176 76.4983 175.506 79.2338 174.608C91.1293 170.685 102.468 170.685 114.367 174.608C117.099 175.506 120.042 176 123.108 176C137.639 176 149.416 164.984 149.416 151.392C149.416 143.464 145.404 136.412 139.183 131.914C130.568 125.686 124.656 118.3 120.473 108.527C116.208 98.5694 107.208 91.703 96.8006 91.703C86.3897 91.703 77.3891 98.5694 73.1245 108.527C68.9416 118.3 63.0291 125.686 54.4145 131.914C48.1976 136.412 44.1817 143.464 44.1817 151.392C44.1817 164.984 55.9585 176 70.4893 176Z" stroke="black" stroke-width="24" mask="url(#path-9-inside-1_1_2)"/>
</svg>

<svg width="192" height="192" viewBox="0 0 192 192" fill="none" xmlns="http://www.w3.org/2000/svg"><path d="M33.805 56.96C28.73 63.965 27.7 68.63 28.536 78.035c2.837-4.873 4.783-7.052 10.537-7.376-3.954-4.184-5.024-7.234-5.268-13.699ZM123.159 19.27c5.999 6.229 7.668 10.705 8.15 20.135-3.488-4.43-5.717-6.317-11.461-5.837 3.334-4.693 3.969-7.863 3.311-14.299ZM66.278 18.982c-5.666 6.535-7.097 11.092-7.086 20.535 3.252-4.607 5.38-6.608 11.14-6.43-3.574-4.512-4.375-7.644-4.054-14.105ZM153.175 56.584c6.107 6.123 7.853 10.57 8.5 19.99-3.564-4.368-5.827-6.216-11.561-5.636 3.251-4.75 3.831-7.931 3.061-14.354Z" stroke="#000" stroke-width="6" stroke-linejoin="round"/><path d="M128.477 67.314c-1.023 5.807-3.489 10.517-6.337 13.487-2.88 3.005-5.6 3.762-7.582 3.413-1.982-.35-4.278-1.992-5.957-5.8-1.66-3.765-2.366-9.035-1.342-14.841 1.024-5.807 3.489-10.517 6.337-13.487 2.881-3.005 5.6-3.762 7.582-3.413 1.982.35 4.278 1.992 5.957 5.8 1.66 3.765 2.366 9.035 1.342 14.841ZM62.872 66.372c1.024 5.807 3.49 10.517 6.337 13.487 2.88 3.005 5.6 3.762 7.582 3.413 1.982-.35 4.278-1.992 5.957-5.8 1.66-3.765 2.366-9.035 1.343-14.841-1.024-5.806-3.49-10.517-6.338-13.487-2.88-3.005-5.6-3.762-7.582-3.413-1.982.35-4.278 1.992-5.957 5.8-1.66 3.765-2.366 9.035-1.342 14.841ZM156.612 105.706c-2.016 5.54-5.263 9.751-8.583 12.182-3.358 2.458-6.168 2.732-8.059 2.044-1.891-.689-3.867-2.704-4.86-6.747-.981-3.995-.761-9.308 1.256-14.848 2.016-5.54 5.262-9.752 8.582-12.182 3.359-2.459 6.168-2.732 8.06-2.044 1.891.688 3.867 2.704 4.86 6.746.981 3.996.761 9.309-1.256 14.849ZM35.21 105.706c2.016 5.54 5.262 9.751 8.582 12.182 3.359 2.458 6.168 2.732 8.06 2.044 1.89-.689 3.867-2.704 4.86-6.747.98-3.995.76-9.308-1.256-14.848-2.017-5.54-5.263-9.752-8.583-12.182-3.359-2.459-6.168-2.732-8.06-2.044-1.89.688-3.867 2.704-4.86 6.746-.98 3.996-.76 9.309 1.256 14.849Z" stroke="#000" stroke-width="12"/><mask id="a" fill="#fff"><path fill-rule="evenodd" clip-rule="evenodd" d="M70.49 176c3.065 0 6.008-.494 8.744-1.392 11.895-3.923 23.234-3.923 35.133 0a27.97 27.97 0 0 0 8.741 1.392c14.531 0 26.308-11.016 26.308-24.608 0-7.928-4.012-14.98-10.233-19.478-8.615-6.228-14.527-13.614-18.71-23.387-4.265-9.958-13.265-16.824-23.672-16.824-10.411 0-19.412 6.866-23.677 16.824-4.182 9.773-10.095 17.159-18.71 23.387-6.216 4.498-10.232 11.55-10.232 19.478 0 13.592 11.776 24.608 26.307 24.608Z"/></mask><path clip-rule="evenodd" d="M70.49 176c3.065 0 6.008-.494 8.744-1.392 11.895-3.923 23.234-3.923 35.133 0a27.97 27.97 0 0 0 8.741 1.392c14.531 0 26.308-11.016 26.308-24.608 0-7.928-4.012-14.98-10.233-19.478-8.615-6.228-14.527-13.614-18.71-23.387-4.265-9.958-13.265-16.824-23.672-16.824-10.411 0-19.412 6.866-23.677 16.824-4.182 9.773-10.095 17.159-18.71 23.387-6.216 4.498-10.232 11.55-10.232 19.478 0 13.592 11.776 24.608 26.307 24.608Z" stroke="#000" stroke-width="24" mask="url(#a)"/></svg>
